icons/surgical-mask-line.svg

<svg xmlns="http://www.w3.org/2000/svg" width="24" height="24" fill="none"><g clip-path="url(#a)"><g><path fill="#121212" d="M12.485 3.12104L20.243 5.06103C20.688 5.17103 21 5.57104 21 6.03104V7.00004H22C23.1 7.00004 24 7.90004 24 9.00004V12C24 13.657 22.657 15 21 15H20.579C20.044 16.35 19.027 17.486 17.683 18.158L12.894 20.553C12.331 20.834 11.669 20.834 11.106 20.553L6.316 18.158C4.974 17.486 3.957 16.35 3.422 15H3C1.343 15 0 13.657 0 12V9.00004C0 7.89504 0.895 7.00004 2 7.00004H3V6.03004C3 5.57204 3.312 5.17203 3.757 5.06003L11.515 3.12104C11.833 3.04104 12.167 3.04104 12.485 3.12104ZM12 5.06103L5 6.81103V12.791C5 14.307 5.856 15.691 7.211 16.37L12 18.764L16.789 16.37C18.144 15.692 19 14.307 19 12.792V6.81203L12 5.06203V5.06103ZM3 9.00004H2V12C2 12.552 2.448 13 3 13V9.00004ZM22 9.00004H21V13C21.552 13 22 12.552 22 12V9.00004Z"/></g></g><defs><clipPath id="a"><rect width="24" height="24" fill="white"/></clipPath></defs></svg>

<svg width="24" height="24" fill="none" xmlns="http://www.w3.org/2000/svg"><g clip-path="url(#a)"><path d="m12.485 3.121 7.758 1.94c.445.11.757.51.757.97V7h1c1.1 0 2 .9 2 2v3a3 3 0 0 1-3 3h-.421a6.001 6.001 0 0 1-2.896 3.158l-4.789 2.395a2.002 2.002 0 0 1-1.788 0l-4.79-2.395A6.005 6.005 0 0 1 3.422 15H3a3 3 0 0 1-3-3V9a2 2 0 0 1 2-2h1v-.97c0-.458.312-.858.757-.97l7.758-1.939c.318-.08.652-.08.97 0ZM12 5.061l-7 1.75v5.98c0 1.516.856 2.9 2.211 3.579L12 18.764l4.789-2.394A4.001 4.001 0 0 0 19 12.792v-5.98l-7-1.75v-.001ZM3 9H2v3a1 1 0 0 0 1 1V9Zm19 0h-1v4a1 1 0 0 0 1-1V9Z" /></g><defs><clipPath id="a"><path fill="#fff" d="M0 0h24v24H0z"/></clipPath></defs></svg>
